react-and-redux/readable/frontend/public/img/react-logo.svg

<svg width="48px" height="43px" viewBox="0 0 48 43" version="1.1" xmlns="http://www.w3.org/2000/svg" xmlns:xlink="http://www.w3.org/1999/xlink">
    <!-- Generator: Sketch 43.2 (39069) - http://www.bohemiancoding.com/sketch -->
    <desc>Created with Sketch.</desc>
    <defs></defs>
    <g id="Page-1" stroke="none" stroke-width="1" fill="none" fill-rule="evenodd">
        <g id="react-logo" fill-rule="nonzero" fill="#383838">
            <circle id="Oval" cx="23.5" cy="20.5" r="4.5"></circle>
            <path d="M24,13.0960699 C29.5380081,13.0960699 34.79868,13.8941485 38.7980961,15.3015721 C43.2400881,16.8647162 45.9494555,19.1757205 45.9494555,20.9563319 C45.9494555,22.8531004 43.0233285,25.3154585 38.2721315,26.9246288 C34.4896458,28.2056769 29.4288166,28.9039301 24,28.9039301 C18.2969231,28.9039301 13.1790204,28.219214 9.44036511,26.9130131 C7.09983945,26.0952838 5.16694494,25.0324891 3.84212231,23.8727511 C2.65161035,22.8305677 2.0505445,21.7958952 2.0505445,20.9563319 C2.0505445,19.1696943 4.65635936,16.8908297 9.00240298,15.3419214 C13.0035279,13.9160699 18.3930424,13.0960699 24,13.0960699 L24,13.0960699 Z M24,11 C18.175172,11 12.5599268,11.8543231 8.32734665,13.3627074 C3.24541386,15.1737991 0,18.0121397 0,20.9563319 C0,23.9971179 3.48404598,27.0470742 8.77718484,28.8964192 C12.7558392,30.2865502 18.0888783,31 24,31 C29.6335293,31 34.9071879,30.2724017 38.9170277,28.9143231 C44.4197493,27.0505677 48,24.0378166 48,20.9563319 C48,18.0014847 44.6499229,15.1441048 39.4656338,13.3196507 C35.2380946,11.8320524 29.7539133,11 24,11 L24,11 Z" id="Shape"></path>
            <path d="M16.9139032,17.6205167 C19.6410779,12.7880873 22.8986957,8.5903828 26.0440428,5.79329016 C29.5373195,2.68679604 32.8021806,1.46020637 34.2897457,2.33677217 C35.874337,3.27057079 36.4904359,7.03623206 35.4949077,11.9742624 C34.7023594,15.9055977 32.793337,20.6653887 30.1198973,25.4026309 C27.3112779,30.3793041 24.2189919,34.5080711 21.2864789,37.1273547 C19.4507316,38.7671395 17.6109414,39.930644 15.9896285,40.5157097 C14.5328051,41.0415631 13.3723661,41.0566244 12.6710324,40.6433432 C11.1784981,39.7637651 10.5579353,36.3680947 11.4043027,31.8131369 C12.1834594,27.6199077 14.1525335,22.5134493 16.9139032,17.6205167 L16.9139032,17.6205167 Z M15.1628852,16.5886047 C12.2942141,21.6715675 10.2426847,26.992068 9.4184681,31.4278266 C8.42883552,36.7539213 9.20159117,40.9832114 11.6611861,42.4326218 C14.2016361,43.9296258 18.4652259,42.3908806 22.616882,38.6825382 C25.7376357,35.8949987 28.9598794,31.5926399 31.8709153,26.4345429 C34.6452555,21.518631 36.6344591,16.5586542 37.4746782,12.3909862 C38.6277054,6.6719215 37.8739002,2.06437838 35.2995921,0.547493521 C32.8310694,-0.907166782 28.7941265,0.609459881 24.7170087,4.23518046 C21.3923486,7.19175041 17.9964349,11.5677803 15.1628852,16.5886047 L15.1628852,16.5886047 Z" id="Shape"></path>
            <path d="M16.8896282,25.3836653 C14.1613756,20.5527092 12.2341071,15.5691467 11.4354753,11.3849591 C10.5484614,6.7378712 11.1375637,3.23257524 12.6199809,2.35284947 C14.1990136,1.41585326 17.6906964,2.75184796 21.3708213,6.10152331 C24.3008742,8.76825932 27.3752622,12.837906 30.0499142,17.5738707 C32.8595759,22.5489934 34.8109562,27.3517018 35.5653969,31.2584938 C36.0376365,33.7043295 36.1050993,35.9154855 35.7922332,37.6441919 C35.5111242,39.1975559 34.9457977,40.2329884 34.2468899,40.6478332 C32.7594319,41.5305732 29.5785148,40.3832695 26.1479938,37.3571507 C22.9899284,34.5713955 19.6520743,30.2749922 16.8897122,25.3836653 L16.8896282,25.3836653 Z M15.1446689,26.4191839 C18.0144002,31.5005798 21.4920527,35.9768898 24.8328473,38.9238635 C28.8441533,42.462316 32.8059753,43.8911491 35.2570676,42.4365658 C37.7886447,40.9342715 38.6113884,36.3882897 37.5433254,30.85717 C36.740493,26.6995077 34.7070315,21.6947594 31.7948735,16.5383521 C29.0194053,11.6238586 25.8156366,7.38300343 22.7096596,4.55599628 C18.4472374,0.67641856 14.1750698,-0.958329802 11.6097192,0.564116808 C9.14980555,2.02386735 8.42132497,6.35807769 9.45653864,11.7818045 C10.3007897,16.2046333 12.3098873,21.3997951 15.1445849,26.4191839 L15.1446689,26.4191839 Z" id="Shape"></path>
        </g>
    </g>
</svg>

<svg width="48" height="43" xmlns="http://www.w3.org/2000/svg">
    <g fill="#000">
        <circle cx="23.5" cy="20.5" r="4.5"/>
        <path d="M24 13.096c5.538 0 10.799.798 14.798 2.206 4.442 1.563 7.151 3.874 7.151 5.654 0 1.897-2.926 4.36-7.677 5.969-3.782 1.28-8.843 1.979-14.272 1.979-5.703 0-10.821-.685-14.56-1.991-2.34-.818-4.273-1.88-5.598-3.04-1.19-1.042-1.791-2.077-1.791-2.917 0-1.786 2.605-4.065 6.951-5.614 4.002-1.426 9.391-2.246 14.998-2.246zM24 11c-5.825 0-11.44.854-15.673 2.363C3.245 15.173 0 18.013 0 20.956c0 3.041 3.484 6.091 8.777 7.94C12.756 30.286 18.09 31 24 31c5.634 0 10.907-.728 14.917-2.086C44.42 27.051 48 24.038 48 20.956c0-2.955-3.35-5.812-8.534-7.636C35.238 11.832 29.754 11 24 11z"/>
        <path d="M16.914 17.62c2.727-4.832 5.985-9.03 9.13-11.827 3.493-3.106 6.758-4.333 8.246-3.456 1.584.934 2.2 4.7 1.205 9.637-.793 3.932-2.702 8.691-5.375 13.429-2.809 4.976-5.901 9.105-8.834 11.724-1.835 1.64-3.675 2.804-5.296 3.389-1.457.526-2.618.54-3.319.127-1.493-.88-2.113-4.275-1.267-8.83.78-4.193 2.749-9.3 5.51-14.192zm-1.751-1.031c-2.869 5.083-4.92 10.403-5.745 14.839-.99 5.326-.216 9.555 2.243 11.005 2.54 1.497 6.804-.042 10.956-3.75 3.12-2.788 6.343-7.09 9.254-12.248 2.774-4.916 4.763-9.876 5.604-14.044 1.153-5.72.399-10.327-2.175-11.844C32.83-.907 28.794.61 24.717 4.235c-3.325 2.957-6.72 7.333-9.554 12.354z"/>
        <path d="M16.89 25.384c-2.729-4.831-4.656-9.815-5.455-13.999-.887-4.647-.297-8.152 1.185-9.032 1.579-.937 5.07.399 8.75 3.749 2.93 2.666 6.005 6.736 8.68 11.472 2.81 4.975 4.761 9.778 5.515 13.684.473 2.446.54 4.657.227 6.386-.28 1.554-.846 2.589-1.545 3.004-1.488.883-4.668-.265-8.099-3.29-3.158-2.787-6.496-7.083-9.258-11.974zm-1.745 1.035c2.87 5.082 6.347 9.558 9.688 12.505 4.011 3.538 7.973 4.967 10.424 3.513 2.532-1.503 3.354-6.049 2.286-11.58-.803-4.157-2.836-9.162-5.748-14.319-2.776-4.914-5.98-9.155-9.085-11.982C18.447.676 14.175-.958 11.61.564 9.15 2.024 8.42 6.358 9.457 11.782c.844 4.423 2.853 9.618 5.688 14.637z"/>
    </g>
</svg>
